src/assets/icons/settings/lock-time.svg

<?xml version="1.0" encoding="UTF-8"?>
<svg width="24px" height="24px" viewBox="0 0 24 24" version="1.1" xmlns="http://www.w3.org/2000/svg" xmlns:xlink="http://www.w3.org/1999/xlink">
    <title>形状结合</title>
    <g id="扩展程序" stroke="none" stroke-width="1" fill="none" fill-rule="evenodd">
        <g id="设置" transform="translate(-40.000000, -586.000000)" fill="#6E7585" fill-rule="nonzero">
            <g id="编组-6备份-8" transform="translate(20.000000, 514.000000)">
                <g id="编组-4备份-26" transform="translate(20.000000, 56.000000)">
                    <g id="形状结合-2" transform="translate(0.000000, 16.000000)">
                        <path d="M12,1 C14.9730632,1 17.4410745,3.16238395 17.9170737,6.00019152 L19,6 C20.6568542,6 22,7.34314575 22,9 L22,19 C22,20.6568542 20.6568542,22 19,22 L5,22 C3.34314575,22 2,20.6568542 2,19 L2,9 C2,7.34314575 3.34314575,6 5,6 L6.08292631,6.00019152 C6.55892549,3.16238395 9.02693683,1 12,1 Z M19,8 L5,8 C4.44771525,8 4,8.44771525 4,9 L4,9 L4,19 C4,19.5522847 4.44771525,20 5,20 L5,20 L19,20 C19.5522847,20 20,19.5522847 20,19 L20,19 L20,9 C20,8.44771525 19.5522847,8 19,8 L19,8 Z M12,10 C12.5522847,10 13,10.4477153 13,11 L13,13.585 L15.5355339,16.1213203 C15.9260582,16.5118446 15.9260582,17.1450096 15.5355339,17.5355339 C15.1450096,17.9260582 14.5118446,17.9260582 14.1213203,17.5355339 L11.2928932,14.7071068 L11.2196888,14.625449 C11.2173721,14.6225624 11.2150711,14.6196628 11.212786,14.6167501 L11.2928932,14.7071068 C11.2574992,14.6717127 11.225313,14.6343256 11.1963346,14.5953066 C11.1784901,14.5711307 11.1617187,14.546275 11.1460674,14.5206602 C11.1386069,14.5086131 11.1314988,14.4963944 11.1246712,14.4840621 C11.1137939,14.4642939 11.1033766,14.4438914 11.0936538,14.4230991 C11.085679,14.4060985 11.0781964,14.3887956 11.0712255,14.371336 C11.0633157,14.3515792 11.0561225,14.3317977 11.0495467,14.3117364 C11.0447287,14.2968513 11.0400977,14.2814633 11.0358451,14.265993 C11.0298336,14.2444365 11.0246398,14.2227461 11.0201652,14.2007941 C11.0167022,14.1833753 11.0136281,14.165949 11.0110178,14.1484669 C11.008101,14.1294204 11.005748,14.1096949 11.0039775,14.0898018 C11.001895,14.0659949 11.0006349,14.042681 11.0001861,14.0193545 C11.0000613,14.0129086 11,14.0064615 11,14 L11,11 C11,10.4477153 11.4477153,10 12,10 Z M12,3 C10.1360729,3 8.56991294,4.27489272 8.12595483,6.00024347 L15.8740452,6.00024347 C15.4300871,4.27489272 13.8639271,3 12,3 Z" id="形状结合"></path>
                    </g>
                </g>
            </g>
        </g>
    </g>
</svg>

<svg width="24" height="24" xmlns="http://www.w3.org/2000/svg"><path d="M12 1a6.002 6.002 0 0 1 5.917 5H19a3 3 0 0 1 3 3v10a3 3 0 0 1-3 3H5a3 3 0 0 1-3-3V9a3 3 0 0 1 3-3h1.083A6.002 6.002 0 0 1 12 1zm7 7H5a1 1 0 0 0-1 1v10a1 1 0 0 0 1 1h14a1 1 0 0 0 1-1V9a1 1 0 0 0-1-1zm-7 2a1 1 0 0 1 1 1v2.585l2.536 2.536a1 1 0 0 1-1.415 1.415l-2.828-2.829-.073-.082a1.003 1.003 0 0 1-.007-.008l.08.09A1.008 1.008 0 0 1 11 14.02 1 1 0 0 1 11 14v-3a1 1 0 0 1 1-1zm0-7a4.002 4.002 0 0 0-3.874 3h7.748A4.002 4.002 0 0 0 12 3z" fill="#6e7585" fill-rule="nonzero"/></svg>
